X: 13
T: Sailing over England
B: canberra pickers and fiddlers
M:4/4
L:1/8
Q: 1/4=100
K:D
V:1 
D-E|"D"F2 DF E-DFE|"G"D2""B,2"D"A,2((3A,B,[CD]-|[DD])[D2D2]E D2F2|"A"[FA]-[A3A3]- [A2A2]d-B|
"D"A2[F2A2]+slide+([F3A3]E)|"G"D2B,2- "D"B,2A,-B,|D2 D-E "A"F2E2|+slide+"D"[D3D3][DD][D2D2]:|
"D"[D2D2]-|[D2D2]dB d3d|d2d2-d2AB-|"G"d4 d2B2|+slide+"A"[A3A3][AA][A2A2](dB)|
"D"A2[F2A2]+slide+([F3A3]E)|"G"D2B,2"D"A,3 [CD]-|"D"[DD][D3D3]"A"F2F2|+slide+"D"[D3D3][DD][D2D2]|
"D"[D2D2]-|[D2D2]dd d2dd|e2d2-d2A-B|"G"d3e d2B2|"A"[A3A3][AA][A2A2]((3dcB|
"D"A2) [F2A2]+slide+([F3A3]E)|"G"D2B,2"D"A,3 [CD]-|"D"[DD][D3D3]"A"F2F2|+slide+"D"[D3D3][DD][D2D2]||
Sailing over England
% abcbook-tune_id 63ae8f1ceba3cefdd3a53bd5
% abcbook-link-0 https://www.youtube.com/watch?v=bI2pqAarDzI

% abcbook-boost 0
% abcbook-tablature 
% abcbook-transpose 
% abcbook-lastupdated 1672384284224
% abcbook-soundfonts 
% abcbook-repeats 1


